src/assets/icons/database.svg

<svg width="14" height="14" viewBox="0 0 14 14" fill="none" xmlns="http://www.w3.org/2000/svg">
<g id="database">
<g clip-path="url(#clip0_156_4598)">
<path id="Vector" fill-rule="evenodd" clip-rule="evenodd" d="M7 1.13452C4.80959 1.13452 2.69871 1.97808 1.81333 2.38388L1.81282 2.38411C1.75266 2.41161 1.70557 2.48055 1.70557 2.55646V3.24735C1.75288 3.26958 1.80537 3.29385 1.86275 3.31983C2.16323 3.4559 2.59627 3.63828 3.12099 3.82079C4.17625 4.18784 5.57478 4.54566 7 4.54566C8.42522 4.54566 9.82374 4.18784 10.879 3.82079C11.4037 3.63828 11.8368 3.4559 12.1372 3.31983C12.1946 3.29385 12.2471 3.26958 12.2944 3.24735V2.55646C12.2944 2.47275 12.2485 2.41141 12.1926 2.38657L12.1883 2.38464L12.1883 2.38462C11.2931 1.97772 9.19009 1.13452 7 1.13452ZM12.2944 4.4898C12.007 4.61223 11.6543 4.75232 11.2517 4.89234C10.1325 5.28164 8.60017 5.68018 7 5.68018C5.39983 5.68018 3.86751 5.28164 2.74827 4.89234C2.34571 4.75232 1.99303 4.61223 1.70557 4.4898V7.40726C1.75288 7.42949 1.80537 7.45376 1.86275 7.47974C2.16323 7.61581 2.59627 7.79819 3.12099 7.98071C4.17625 8.34775 5.57478 8.70557 7 8.70557C8.42522 8.70557 9.82374 8.34775 10.879 7.98071C11.4037 7.79819 11.8368 7.61581 12.1372 7.47974C12.1946 7.45376 12.2471 7.42949 12.2944 7.40726V4.4898ZM1.70557 11.4435V8.64971C1.99303 8.77215 2.34571 8.91223 2.74827 9.05226C3.86751 9.44156 5.39983 9.84009 7 9.84009C8.60017 9.84009 10.1325 9.44156 11.2517 9.05226C11.6543 8.91223 12.007 8.77215 12.2944 8.64971V11.4435C12.2944 11.5195 12.2473 11.5885 12.1872 11.6159L12.1867 11.6162C11.3013 12.022 9.19042 12.8655 7 12.8655C4.8099 12.8655 2.70687 12.0223 1.81171 11.6154L1.81172 11.6154L1.80736 11.6135C1.7515 11.5886 1.70557 11.5273 1.70557 11.4435ZM1.34088 1.35241C2.2709 0.926174 4.56179 0 7 0C9.43713 0 11.7195 0.925469 12.6559 1.35094C13.1431 1.56866 13.429 2.05107 13.429 2.55646V11.4435C13.429 11.9574 13.1284 12.4329 12.6594 12.6475C11.7295 13.0737 9.43843 14 7 14C4.56295 14 2.28062 13.0746 1.34419 12.6491C0.856942 12.4314 0.571045 11.9489 0.571045 11.4435V2.55646C0.571045 2.04251 0.871738 1.567 1.34088 1.35241Z" fill="black"/>
</g>
</g>
<defs>
<clipPath id="clip0_156_4598">
<rect width="14" height="14" fill="white"/>
</clipPath>
</defs>
</svg>

<svg xmlns="http://www.w3.org/2000/svg" fill="none" viewBox="0 0 14 14"><g clip-path="url(#a)"><path fill="#000" fill-rule="evenodd" d="M7 1.135c-2.19 0-4.301.843-5.187 1.249a.19.19 0 0 0-.107.172v.691q.071.034.157.073c.3.136.733.318 1.258.5 1.055.368 2.454.726 3.879.726s2.824-.358 3.879-.725a15 15 0 0 0 1.415-.574v-.69a.18.18 0 0 0-.101-.17l-.005-.002C11.293 1.978 9.19 1.135 7 1.135m5.294 3.355c-.287.122-.64.262-1.042.402-1.12.39-2.652.788-4.252.788s-3.132-.398-4.252-.788c-.402-.14-.755-.28-1.042-.402v2.917l.157.073c.3.136.733.318 1.258.5 1.055.368 2.454.726 3.879.726s2.824-.358 3.879-.725a15 15 0 0 0 1.415-.574zM1.706 11.444V8.65c.287.122.64.262 1.042.402 1.12.39 2.652.788 4.252.788s3.133-.398 4.252-.788c.402-.14.755-.28 1.042-.402v2.794a.19.19 0 0 1-.107.172c-.886.406-2.997 1.25-5.187 1.25s-4.293-.844-5.188-1.25l-.005-.002a.18.18 0 0 1-.101-.17M1.34 1.351C2.27.926 4.56 0 7 0c2.437 0 4.72.925 5.656 1.35.487.219.773.701.773 1.206v8.888c0 .513-.3.989-.77 1.204C11.73 13.074 9.44 14 7 14c-2.437 0-4.72-.925-5.656-1.35a1.32 1.32 0 0 1-.773-1.207V2.557c0-.513.3-.989.77-1.204" clip-rule="evenodd"/></g><defs><clipPath id="a"><path fill="#fff" d="M0 0h14v14H0z"/></clipPath></defs></svg>
